svg/message_arrow_right_outline.svg

<svg xmlns="http://www.w3.org/2000/svg" viewBox="0 0 24 24"><path d="M20 2H4c-1.1 0-2 .9-2 2v18l4-4h14c1.1 0 2-.9 2-2V4c0-1.1-.9-2-2-2m0 14H5.2L4 17.2V4h16zM8 9v2h4.5l-1.8 1.8L12 14l4-4-4-4-1.2 1.2L12.5 9z"/></svg>

<?xml version="1.0" encoding="UTF-8"?><!DOCTYPE svg PUBLIC "-//W3C//DTD SVG 1.1//EN" "http://www.w3.org/Graphics/SVG/1.1/DTD/svg11.dtd"><svg xmlns="http://www.w3.org/2000/svg" xmlns:xlink="http://www.w3.org/1999/xlink" version="1.1" id="mdi-message-arrow-right-outline" width="24" height="24" viewBox="0 0 24 24"><path d="M20 2H4C2.9 2 2 2.9 2 4V22L6 18H20C21.1 18 22 17.1 22 16V4C22 2.9 21.1 2 20 2M20 16H5.2L4 17.2V4H20V16M8 9V11H12.5L10.7 12.8L12 14L16 10L12 6L10.8 7.2L12.5 9H8Z" /></svg>
